X:1
T:Title
%%score { 1 | ( 2 3 ) }
L:1/8
M:6/8
K:G
V:1 treble nm="Grand Piano"
V:2 treble 
V:3 treble 
V:1
 z3 z2[Q:1/4=100] D | B2 B B2 A | A2 G G2 G | [Ec]2 [Ec] [EG]2 [Ec] |[M:5/8] [DB]-[DB]- [DB]3 | %5
[M:1/8] [DGB] |[M:3/4] [DGB]2 [CFA] [CFA]2 [CFA] | [B,EA]2 [B,EG] [B,EG]2 [EGB] | A2 AA B^c | %9
[M:3/8] [Fd]3 | [Ec]3 |[M:3/4] [GB]2 [GB][Bd] c[DGB] | [DFA]4- [DFA][CFA] | %13
 [B,EG]2 [B,EG][GB] [FA][EG] |[M:5/8] [^DF]-[DF]- [DF]3 |[M:1/8] [DF] | %16
[M:3/4] [CE]2 [CE][EG] F[G,CE] | [G,B,D]2 [B,DG] [DGB]2 [DGB] | [Gd]2 [B,DG] [DGB]2 [CFA] | %19
 [B,DG]6 |] %20
V:2
 z3 z2 [G,B,] | [G,D]2 [G,D] [G,D]2 [G,CF] | [G,CF]2[K:bass] [G,B,] [G,B,D]2 [G,B,D] | %3
 [C,C]2 [C,C] [C,C]2 [C,G,] |[M:5/8] G,-G,- G,3 |[M:1/8] G, |[M:3/4] D,2 D, D,2 ^D, | %7
 E,2 E, E,2 E, | [A,DF]2 [A,DF][A,G]- [A,DG][A,EG] |[M:3/8][K:bass] [D,D]3 | [D,D]3 | %11
[M:3/4] [G,D]2 .[G,D]2[K:treble] AG, | D,4- D,D, | E,2 E,[E,G,] [E,A,][E,B,] | %14
[M:5/8] [B,,B,]-[B,,B,]- [B,,B,]3 |[M:1/8] [B,,B,] |[M:3/4] [C,G,]2 .[C,G,]2 DC, | %17
 G,,2 G,, G,2 G, | [D,B,]2 D, D,2 D, | G,,6 |] %20
V:3
 x6 | x6 | x2[K:bass] x4 | x6 |[M:5/8] x5 |[M:1/8] x |[M:3/4] x6 | x6 | z2 z ^C z2 | %9
[M:3/8][K:bass] x3 | x3 |[M:3/4] z2 z .[G,D]3[K:treble] | x6 | x6 |[M:5/8] x5 |[M:1/8] x | %16
[M:3/4] z2 z .[C,G,]3 | x6 | x6 | x6 |] %20

